X:560
T:Reel 560
L:1/8
M: 4/4
K: D Major
A|A3AFAdB|ABAFEDB,2|FAABAFDF|EGfdefge|faAFGABG|AFdF(3BcdAd|fA(3BcdAdFD|EA,A,A,A,2|FG|Adcdegfd|A,dFABAFd|Adfdefgf|edcdBdAB|Adfdefge|(3fgafdedfd|Adfdegfd|edcedBAF|.abc